!!!COM:	la Rue, Pierre de
!!!CDT:	~1452///-1518/11/20
!!!OPR:	Missa O gloriosa domina
!!!ONM:	5
!!!OTL:	Agnus Dei
!!!AGN:	Mass; Agnus Dei
!!!SCT:	Rue1021e
!!!SCA:	Rue1021e
!!!voices-OPR:	4
!!!voices:	4
**kern	**kern	**kern	**kern
*staff4	*staff3	*staff2	*staff1
*Ivox	*Ivox	*Ivox	*Ivox
*I"Bassus	*I"Tenor	*I"Contra	*I"Discantus
*I'B	*I'T	*I'C	*I'D
*>[A,B,C]	*>[A,B,C]	*>[A,B,C]	*>[A,B,C]
*>A	*>A	*>A	*>A
*clefF4	*clefGv2	*clefG2	*clefG2
*k[]	*k[]	*k[]	*k[]
*M3/1	*M3/1	*M3/1	*M3/1
*met(O)	*met(O)	*met(O)	*met(O)
=1-	=1-	=1-	=1-
!!section: Agnus Dei I
!!!OMD: Agnus Dei I
0d	0.r	0.r	0dd
1d	.	.	1a
=2	=2	=2	=2
1.A	0.r	0.r	2a/
.	.	.	1cc
2B\	.	.	2dd\
1c	.	.	1ee
=3	=3	=3	=3
1d	0d	0a	1ff
2r	.	.	2ff\
2.D\	.	.	1dd
.	1A	1a	.
4E\	.	.	.
4F\	.	.	2dd\
4G\	.	.	.
=4	=4	=4	=4
1.A	2A/	1.e	2cc\
.	1c	.	2a/
.	.	.	2cc\
4G\	2d\	2f/	4b\
4F\	.	.	4a/
1E	1e	1g	1g
=5	=5	=5	=5
0D	2.f\	0a	2r
.	.	.	2.f/
.	4e\	.	.
.	2d\	.	.
.	.	.	4d/
.	4c\	.	4f/
.	4B\	.	4g/
2.F\	[1A	1f	2.a/
4D\	.	.	4f/
=6	=6	=6	=6
4F\	1A]	2d/	4a/
4G\	.	.	4b\
2.A\	.	2.c/	1cc
.	1r	.	.
4F\	.	4A/	.
4A\	.	4c/	4b\
4B\	.	4d/	4a/
1c	2r	2.e/	1g
.	2c\	.	.
.	.	4f/	.
=7	=7	=7	=7
1F	2.c\	1f	2r
.	.	.	2.cc\
.	4A/	.	.
1r	4c\	1r	.
.	4d\	.	4a/
.	2.e\	.	4cc\
.	.	.	4dd\
1r	.	1r	2.ee\
.	4c\	.	.
.	4e\	.	.
.	4f\	.	4cc\
=8	=8	=8	=8
0.r	1g	1r	4ee\
.	.	.	4ff\
.	.	.	2.gg\
.	2e\	1r	.
.	.	.	4ff\
.	2f\	.	1ff
.	1g	1b-	.
.	.	.	2ee\
=9	=9	=9	=9
2r	0f	2a/	0ff
2F\	.	1a	.
2F\	.	.	.
2.F\	.	2a/	.
.	1r	2.f/	1r
4D\	.	.	.
4F\	.	.	.
4G\	.	4d/	.
=10	=10	=10	=10
2.A\	0.r	4f/	2r
.	.	4g/	.
.	.	2.a/	2cc\
4F\	.	.	.
4A\	.	.	2cc\
4B\	.	4f/	.
1c	.	4a/	2.cc\
.	.	4b\	.
.	.	1cc	.
.	.	.	4a/
[2c\	.	.	4cc\
.	.	.	4dd\
=11	=11	=11	=11
4c\]	0.r	1a	2ee\
4A\	.	.	.
4c\	.	.	2.cc\
4d\	.	.	.
2e\	.	2g/	.
.	.	.	4a/
1d	.	2f/	4cc\
.	.	.	4dd\
.	.	1e	2ee\
2c#i\	.	.	2ee\
=12	=12	=12	=12
2d\	[0.a	2d/	2.ff\
2d\	.	2f/	.
.	.	.	4dd\
2c\	.	2e/	2ee\
2d\	.	2.f/	1dd
1A	.	.	.
.	.	4d/	.
.	.	2e/	2cc#i\
=13	=13	=13	=13
1D	0a]	1d	2dd\
.	.	.	2ff\
1r	.	2c/	2ee\
.	.	2.d/	2.ff\
2r	1a	.	.
.	.	4c/	4ee\
2A\	.	2A/	2cc\
=14	=14	=14	=14
2B\	2.f\	2.d/	2dd\
2.d\	.	.	2.ff\
.	4e\	4c/	.
.	4f\	2d/	.
4c\	4g\	.	4ee\
2A\	1a	1e	4dd\
.	.	.	4cc\
1B	.	.	1dd
.	2g\	2d/	.
=15	=15	=15	=15
0A	2a\	2e/	0cc
.	2f\	2A/	.
.	2e\	1r	.
.	2.f\	.	.
1r	.	1a	1r
.	4e\	.	.
.	2c\	.	.
=16	=16	=16	=16
1A	2e\	2a/	1cc
.	2.f\	2.a/	.
2A\	.	.	2cc\
.	4e\	4g/	.
2A\	2c\	4e/	2cc\
.	.	4f/	.
1G	1d	1g	4b\
.	.	.	4a/
.	.	.	2b\
=17	=17	=17	=17
1A	0c	1e	2cc\
.	.	.	1a
1F	.	2f/	.
.	.	1a	2cc\
1r	1r	.	2b\
.	.	[2g/	4a/
.	.	.	4g/
=18	=18	=18	=18
2r	2r	4g/]	1a
.	.	4f/	.
2F\	2d\	2f/	.
2.E\	2e\	2g/	1g
.	2.c\	2e/	.
4C/	.	.	.
1D	.	1f	2r
.	4A/	.	.
.	2B\	.	2dd\
=19	=19	=19	=19
1C	2c\	1e	2ee\
.	2e\	.	4dd\
.	.	.	4cc\
2r	1d	1r	2b\
2G\	.	.	2dd\
2A\	2r	1r	2cc\
4G\	2f\	.	4b\
4F\	.	.	4a/
=20	=20	=20	=20
2E\	2g\	2r	1b
2G\	2.e\	2g/	.
2F\	.	2a/	1a
.	4d\	.	.
4E\	1d	2f/	.
4D\	.	.	.
1E	.	1g	2r
.	2c\	.	2ee\
=21	=21	=21	=21
1D	2d\	2f/	2ff\
.	2f\	2a/	4ee\
.	.	.	4dd\
2r	1e	2g/	2cc\
2A\	.	2a/	2ee\
2B-\	1r	2f/	2dd\
4A\	.	2g/	4cc\
4G\	.	.	4b\
=22	=22	=22	=22
2F\	2r	1a	1cc
2A\	1e	.	.
2G\	.	1r	1b
4F\	2e\	.	.
4E\	.	.	.
1F	4d\	1a	2r
.	4c\	.	.
.	2d\	.	2ff\
=23	=23	=23	=23
0.E	2e\	2g/	2gg\
.	1g	2e/	2gg\
.	.	2.g/	2ee\
.	2e\	.	2.gg\
.	.	4f/	.
.	2.g\	4e/	.
.	.	4d/	4ff\
.	.	[2c/	4ee\
.	4f\	.	4dd\
=24	=24	=24	=24
1.A	4e\	2c/]	4cc\
.	4d\	.	4b\
.	1c	2a/	1ee
.	.	2f/	.
2B-i\	2d\	2g/	1dd
1A	1e	1a	.
.	.	.	2cc#i\
=25	=25	=25	=25
0.Dl	0.dl	0.fl	0.ddl
!!LO:LB:i:g=z
=26||	=26||	=26||	=26||
*>B	*>B	*>B	*>B
*clefF4	*clefGv2	*clefG2	*clefG2
*k[]	*k[]	*k[]	*k[]
*M2/1	*M2/1	*M2/1	*M2/1
*met(C|)	*met(C|)	*met(C|)	*met(C|)
!!section: Agnus Dei II
!!!OMD: Agnus Dei II
0r	0r	1a	0r
.	.	2a/	.
.	.	[2g/	.
=27	=27	=27	=27
1r	0r	2g/]	0r
.	.	4f/	.
.	.	4e/	.
1d	.	1f	.
=28	=28	=28	=28
2d\	0r	2f/	0r
1c	.	1e	.
4B-i\	.	2a/	.
4A\	.	.	.
=29	=29	=29	=29
1B-i	0r	2g/	0r
.	.	1f	.
[1A	.	.	.
.	.	4e/	.
.	.	4d/	.
=30	=30	=30	=30
1A]	0r	0c	0r
2r	.	.	.
2c\	.	.	.
=31	=31	=31	=31
2B-i\	0r	1r	0r
1A	.	.	.
.	.	1e	.
4G\	.	.	.
4F\	.	.	.
=32	=32	=32	=32
1E	0r	1g	0r
2r	.	2.g/	.
2E\	.	.	.
.	.	4a/	.
=33	=33	=33	=33
1G	0r	2b\	0r
.	.	1g	.
2.G\	.	.	.
.	.	4f/	.
4A\	.	4e/	.
=34	=34	=34	=34
2B\	0r	2d/	0r
2.G\	.	2.g/	.
4A\	.	4f/	.
4B\	.	4g/	.
4c\	.	4a/	.
=35	=35	=35	=35
4d\	0r	2b\	0r
4c\	.	.	.
4B\	.	1a	.
4A\	.	.	.
1B	.	.	.
.	.	2g#i/	.
=36	=36	=36	=36
1A	0r	0a	0r
2r	.	.	.
2d\	.	.	.
=37	=37	=37	=37
2d\	0r	1r	0r
2c\	.	.	.
2d\	.	1a	.
[2f\	.	.	.
=38	=38	=38	=38
2f\]	0r	1a	0r
4e\	.	.	.
4d\	.	.	.
2e\	.	[1g	.
[2c\	.	.	.
=39	=39	=39	=39
2c\]	0r	1g]	0r
4B\	.	.	.
4A\	.	.	.
1G	.	1b	.
=40	=40	=40	=40
1.F	0r	2a/	0r
.	.	1a	.
2E\	.	2g/	.
=41	=41	=41	=41
2F\	0r	2a/	0r
1A	.	1cc	.
4G\	.	4b\	.
4F\	.	4a/	.
=42	=42	=42	=42
1G	0r	2b\	0r
.	.	1g	.
[1B-i	.	.	.
.	.	4f/	.
.	.	4e/	.
=43	=43	=43	=43
1B-]	0r	1d	0r
1A	.	[1c	.
=44	=44	=44	=44
2r	0r	1c]	0r
1c	.	.	.
.	.	2r	.
4B\	.	[2g/	.
4A\	.	.	.
=45	=45	=45	=45
2G\	0r	2g/]	0r
1d	.	4f/	.
.	.	4e/	.
.	.	2d/	.
4c\	.	2a/	.
4B\	.	.	.
=46	=46	=46	=46
1A	0r	2a/	0r
.	.	2.cc\	.
2A\	.	.	.
.	.	4b\	.
[2c\	.	2a/	.
=47	=47	=47	=47
4c\]	0r	2g/	0r
4B\	.	.	.
2A\	.	1f	.
1G	.	.	.
.	.	2e/	.
=48	=48	=48	=48
0F	0r	1f	0r
.	.	2r	.
.	.	[2f/	.
=49	=49	=49	=49
1r	0r	4f/]	0r
.	.	4g/	.
.	.	4a/	.
.	.	4f/	.
2r	.	2g/	.
[2A\	.	[2f/	.
=50	=50	=50	=50
4A\]	0r	4f/]	0r
4B\	.	4d/	.
4c\	.	4e/	.
4A\	.	4f/	.
2B\	.	2g/	.
[2A\	.	2a/	.
=51	=51	=51	=51
4A\]	0r	2.f/	0r
4F\	.	.	.
4G\	.	.	.
4A\	.	4e/	.
2B\	.	2d/	.
2c\	.	[2g/	.
=52	=52	=52	=52
4B\	0r	4g/]	0r
4A\	.	4f/	.
1d	.	4e/	.
.	.	4d/	.
.	.	1e	.
2c#i\	.	.	.
=53	=53	=53	=53
0dl	0r	0dl	0r
!!LO:LB:i:g=z
=54||	=54||	=54||	=54||
*>C	*>C	*>C	*>C
*clefF4	*clefGv2	*clefG2	*clefG2
*k[]	*k[]	*k[]	*k[]
*M2/1	*M2/1	*M2/1	*M2/1
*met(C|)	*met(C|)	*met(C|)	*met(C|)
!!section: Agnus Dei III
!!!OMD: Agnus Dei III
0d	0f	0a	0dd
=55	=55	=55	=55
1d	1f	1a	1dd
1d	1f	1a	1dd
=56	=56	=56	=56
0A	[0e	0a	1.ee
.	.	.	4dd\
.	.	.	4cc\
=57	=57	=57	=57
1r	0e_	1r	[0cc
1A	.	1a	.
=58	=58	=58	=58
1A	0e]	1a	0cc]
1c	.	2g/	.
.	.	[2a/	.
=59	=59	=59	=59
2c\	0r	4a/]	0r
.	.	4g/	.
1A	.	2f/	.
.	.	2e/	.
[2F\	.	2f/	.
=60	=60	=60	=60
2F\]	0r	2c/	0r
2A\	.	1f	.
1G	.	.	.
.	.	2e/	.
=61	=61	=61	=61
[0F	0a	[0f	1r
.	.	.	1cc
=62	=62	=62	=62
0F]	1a	0f]	1cc
.	1a	.	2cc\
.	.	.	[2a/
=63	=63	=63	=63
1r	0a	1r	2a/]
.	.	.	1f
1F	.	1f	.
.	.	.	2cc\
=64	=64	=64	=64
1F	0a	1f	2dd\
.	.	.	2cc\
1F	.	[1cc	1ff
=65	=65	=65	=65
1c	[0g	2cc\]	1ee
.	.	4b\	.
.	.	4a/	.
2G\	.	2b\	2dd\
[2c\	.	2cc\	[2ee\
=66	=66	=66	=66
2c\]	0g]	2.g/	4ee\]
.	.	.	4ff\
4B\	.	.	2.gg\
4A\	.	4a/	.
1G	.	1b	.
.	.	.	4ff\
.	.	.	2ee\
=67	=67	=67	=67
2r	0g	0r	2dd\
2c\	.	.	2cc\
2d\	.	.	1b
2e\	.	.	.
=68	=68	=68	=68
1f	1a	1cc	1a
1f	1a	2cc\	2r
.	.	2a/	2cc\
=69	=69	=69	=69
2r	1g	2b\	2dd\
2c\	.	2cc\	2ee\
2d\	2f\	2b\	2ff\
2c\	2g\	[2cc\	4ee\
.	.	.	4dd\
=70	=70	=70	=70
2.f\	2a\	4cc\]	2cc\
.	.	4b\	.
.	1d	4a/	1ff
4e\	.	4g/	.
2d\	.	[1a	.
2c\	[2a\	.	[2ee\
=71	=71	=71	=71
1d	4a\]	1a]	2ee\]
.	4g\	.	.
.	2f\	.	2.dd\
1A	1e	1a	.
.	.	.	4cc#i\
.	.	.	2cc#i\
=72	=72	=72	=72
1D	[0d	2r	2dd\
.	.	2f/	2a/
1r	.	2g/	2b\
.	.	2a/	2cc\
=73	=73	=73	=73
1r	0d]	2b-i\	2dd\
.	.	4a/	4cc\
.	.	4g/	4b\
2r	.	2f/	2a/
2G\	.	2b-i\	2g/
=74	=74	=74	=74
2F\	1r	2a/	2a/
2G\	.	2.g/	2b\
1A	1c	.	1cc
.	.	4f#i/	.
.	.	2f#i/	.
=75	=75	=75	=75
0G	2d\	[0g	0b
.	2B\	.	.
.	2d\	.	.
.	2e\	.	.
=76	=76	=76	=76
1G	2d\	0g]	1b
.	2g\	.	.
1G	2e\	.	1b
.	[2g\	.	.
=77	=77	=77	=77
2E\	2g\]	1r	0b
2F\	4f\	.	.
.	4e\	.	.
1G	1d	1g	.
=78	=78	=78	=78
0A	[0c	2e/	1.cc
.	.	2.f/	.
.	.	4e/	.
.	.	2e/	2a/
=79	=79	=79	=79
0F	0c]	1.f	1.a
.	.	4e/	[2cc\
.	.	4d/	.
=80	=80	=80	=80
1F	0r	1c	2cc\]
.	.	.	2b\
1F	.	1d	1a
=81	=81	=81	=81
1E	1r	0e	1.g
1E	1g	.	.
.	.	.	4f/
.	.	.	4e/
=82	=82	=82	=82
2D\	0a	1A	2f/
2E\	.	.	1e
1F	.	1A	.
.	.	.	2d/
=83	=83	=83	=83
0E	1.g	0B	0e
.	4f\	.	.
.	4e\	.	.
=84	=84	=84	=84
2r	2f\	0r	0r
1G	2g\	.	.
.	1e	.	.
4F\	.	.	.
4E\	.	.	.
=85	=85	=85	=85
2F\	2d\	0r	0r
2G\	2.e\	.	.
1E	.	.	.
.	4f\	.	.
.	[2g\	.	.
=86	=86	=86	=86
1A	2g\]	0r	0r
.	2f\	.	.
2G\	2e\	.	.
[2A\	2f\	.	.
=87	=87	=87	=87
4A\]	2f\	0r	0r
4E\	.	.	.
2G\	1e	.	.
1F	.	.	.
.	2d\	.	.
=88	=88	=88	=88
0E	0e	2r	0r
.	.	1g	.
.	.	4f/	.
.	.	4e/	.
=89	=89	=89	=89
0r	0r	2f/	2r
.	.	2g/	1gg
.	.	1e	.
.	.	.	4ff\
.	.	.	4ee\
=90	=90	=90	=90
0r	0r	2d/	2ff\
.	.	2.e/	2gg\
.	.	.	1ee
.	.	4f/	.
.	.	2g/	.
=91	=91	=91	=91
1r	0r	2f/	2dd\
.	.	2e/	2.ee\
2r	.	1g	.
.	.	.	4ff\
[2e\	.	.	[2gg\
=92	=92	=92	=92
2e\]	0r	2e/	2gg\]
2d\	.	2f/	2ff\
2c\	.	2g/	2ee\
[2d\	.	2f/	[2ff\
=93	=93	=93	=93
4d\]	0r	4a/	2ff\]
4c\	.	4g/	.
2c\	.	4f/	2.ee\
.	.	4e/	.
1d	.	1f	.
.	.	.	4dd\
.	.	.	2dd\
=94	=94	=94	=94
2r	1e	2e/	[0ee
1A	.	1cc	.
.	2e\	.	.
[2G\	[2g\	4b\	.
.	.	4a/	.
=95	=95	=95	=95
2G\]	4g\]	2b\	0ee_
.	4f\	.	.
1A	4e\	2cc\	.
.	4d\	.	.
.	2c\	1a	.
[2E\	[2B\	.	.
=96	=96	=96	=96
2E\]	2B\]	2g/	0ee]
2A\	2A/	2.a/	.
2.c\	2e\	.	.
.	.	4b\	.
.	[2e\	2cc\	.
4B\	.	.	.
=97	=97	=97	=97
2G\	4e\]	2b\	1r
.	4d\	.	.
2A\	2c\	1a	.
1E	1B	.	1ee
.	.	2g#i/	.
=98	=98	=98	=98
2r	1A	0a	2ee\
1A	.	.	1cc
.	2r	.	.
2F\	[2d\	.	[2a/
=99	=99	=99	=99
2D\	2d\]	0r	2a/]
1G	2d\	.	1b
.	1e	.	.
[2A\	.	.	[2cc\
=100	=100	=100	=100
2A\]	1f	1a	2cc\]
1D	.	.	1dd
.	1d	2a/	.
[2G\	.	2g/	[2b\
=101	=101	=101	=101
2G\]	1.g	2.e/	2b\]
1E	.	.	1ee
.	.	4f/	.
.	.	2g/	.
2F\	2f\	2a/	[2dd\
=102	=102	=102	=102
2G\	1e	2b\	2dd\]
2A\	.	2a/	2cc\
2.B-i\	1d	2f/	1dd
.	.	4g/	.
4A\	.	4f/	.
=103	=103	=103	=103
2G\	0r	4e/	2r
.	.	4d/	.
2F\	.	1d	2dd\
1E	.	.	1ee
.	.	2c#i/	.
=104	=104	=104	=104
1D	1d	2d/	1ff
.	.	2a/	.
2r	1e	2g/	2ee\
[2A\	.	2a/	[2cc\
=105	=105	=105	=105
2A\]	1f	2cc\	2cc\]
2B\	.	4b\	2dd\
.	.	4a/	.
2c\	1e	2g/	2ee\
[2A\	.	[2a/	[2cc\
=106	=106	=106	=106
2A\]	1f	2a/]	2cc\]
2d\	.	1b	1dd
2G\	1g	.	.
[2c\	.	[2cc\	[2ee\
=107	=107	=107	=107
2c\]	1a	2cc\]	2ee\]
1F	.	1a	1ff
.	1f	.	.
[2B-i\	.	[2dd\	[2dd\
=108	=108	=108	=108
2B-\]	0g	4dd\]	2dd\]
.	.	4cc\	.
2.G\	.	4b-i\	2.gg\
.	.	4a/	.
.	.	2b-i\	.
4A\	.	.	4ff\
4B-i\	.	2b-i\	4dd\
4A\	.	.	4ee\
=109	=109	=109	=109
2F\	1a	0cc	1ff
2f\	.	.	.
2f\	2a\	.	2ff\
2c\	[2g\	.	[2ee\
=110	=110	=110	=110
1d	4g\]	1a	4ee\]
.	4f\	.	4dd\
.	4e\	.	1dd
.	4d\	.	.
1A	1e	1a	.
.	.	.	2cc#i\
=111	=111	=111	=111
2.B-\	[0dl	2.f/	[0ddl
4A\	.	4g/	.
2F\	.	2a/	.
[2G\	.	[2b-i\	.
=112	=112	=112	=112
4G\]	0d_	2b-\]	0dd_
4A\	.	.	.
4B-i\	.	4a/	.
4c\	.	4g/	.
1d	.	2.f/	.
.	.	4g/	.
=113	=113	=113	=113
0Dl	0d]	0al	0dd]
==	==	==	==
*-	*-	*-	*-
!!!RDF**kern: l=long note in original notation
!!!RDF**kern: i=editorial accidental
!!!ENC:	Chris Gage 03-28-2013
!!!END:	2013/07/27/
!!!EED:	Jesse Rodin
!!!EEV:	2013/08/05/
!!!ONB:	Translated from MusicXML and edited on 2013/08/05/ by Craig Sapp
!!muse2ps: T^@{OPR}^u^@{ONM}{. }@{OTL}^C^@{COM}^i2I150v85,85,85,150Q8c95
